X:445
T:Panda's Asturian Tune
Z:Jack Campin, http://www.campin.me.uk/
F:Jack Campin's Nine-Note Tunebook
% last edit 03-02-2013
M:C|
L:1/8
Q:1/2=100
N:learnt (in B minor) from my one-time bandmate Panda Smith
N:who learnt it at a Rainbow Gathering in Portugal; I don't
N:know if it has a name
K:DMin
           |:DEDC D2E2|FEFE D2A2|DEDC DECE|D4   z2 [1 A2:|
[2 D/E/F/G/||A3 G FCFA|A2AG F3 F|F2C2 F2A2|GAGF E4       |
             DFFF CFFF|EGFE D2GF|EDCD E2FE|EGFE D4      |]

